app/assets/images/webauthn-verified.svg

<svg width="75" height="75" viewBox="0 0 75 75" fill="none" xmlns="http://www.w3.org/2000/svg">
<path fill-rule="evenodd" clip-rule="evenodd" d="M75 37.5C75 58.2107 58.2107 75 37.5 75C16.7893 75 0 58.2107 0 37.5C0 16.7893 16.7893 0 37.5 0C58.2107 0 75 16.7893 75 37.5ZM22 41C22 39.3431 23.3431 38 25 38H25.5556V26.4445C25.5556 19.5716 31.1271 14 38 14C44.8729 14 50.4444 19.5716 50.4444 26.4444V30.7778C50.4444 31.33 49.9967 31.7778 49.4444 31.7778H46.1111C45.5588 31.7778 45.1111 31.33 45.1111 30.7778V26.4444C45.1111 22.5171 41.9274 19.3333 38 19.3333C34.0726 19.3333 30.8889 22.5171 30.8889 26.4444V38H46.1049C46.1069 38 46.109 38 46.1111 38H49.4444C49.4465 38 49.4486 38 49.4507 38H51C52.6569 38 54 39.3431 54 41V56.3333C54 57.9902 52.6569 59.3333 51 59.3333H25C23.3431 59.3333 22 57.9902 22 56.3333V41Z" fill="#63BB60"/>
</svg>

<svg width="75" height="75" fill="none" xmlns="http://www.w3.org/2000/svg"><path fill-rule="evenodd" clip-rule="evenodd" d="M75 37.5C75 58.21 58.21 75 37.5 75S0 58.21 0 37.5 16.79 0 37.5 0 75 16.79 75 37.5zM22 41a3 3 0 013-3h.556V26.445C25.556 19.572 31.127 14 38 14c6.873 0 12.444 5.572 12.444 12.444v4.334a1 1 0 01-1 1h-3.333a1 1 0 01-1-1v-4.334a7.111 7.111 0 00-14.222 0V38H51a3 3 0 013 3v15.333a3 3 0 01-3 3H25a3 3 0 01-3-3V41z" fill="#63BB60"/></svg>
